svg/fluentui-system-icons/ic_fluent_document_queue_multiple_20_regular.svg

<svg width="20" height="20" viewBox="0 0 20 20" fill="none" xmlns="http://www.w3.org/2000/svg">
<path d="M12.3841 3.74573L13.4945 4.87317L16 7.37868V6.70908C16 6.24956 15.8193 5.80848 15.4968 5.48109L13.0965 3.04402C12.4387 2.37609 11.5404 2 10.6029 2H5.75C4.82554 2 4.06851 2.71682 4.00439 3.62496C4.47922 3.23446 5.08723 3 5.75 3H10.6029C11.2725 3 11.9142 3.26864 12.3841 3.74573ZM2.5 13C2.77614 13 3 13.2239 3 13.5V14.5C3 15.8807 4.11929 17 5.5 17H14.5C15.8807 17 17 15.8807 17 14.5V13.5C17 13.2239 17.2239 13 17.5 13C17.7761 13 18 13.2239 18 13.5V14.5C18 16.433 16.433 18 14.5 18H5.5C3.567 18 2 16.433 2 14.5V13.5C2 13.2239 2.22386 13 2.5 13ZM6 7.5C6 7.22386 6.22386 7 6.5 7H8.5C8.77614 7 9 7.22386 9 7.5C9 7.77614 8.77614 8 8.5 8H6.5C6.22386 8 6 7.77614 6 7.5ZM6.5 9C6.22386 9 6 9.22386 6 9.5C6 9.77614 6.22386 10 6.5 10H8.5C8.77614 10 9 9.77614 9 9.5C9 9.22386 8.77614 9 8.5 9H6.5ZM6 11.5C6 11.2239 6.22386 11 6.5 11H8.5C8.77614 11 9 11.2239 9 11.5C9 11.7761 8.77614 12 8.5 12H6.5C6.22386 12 6 11.7761 6 11.5ZM16 9.50623L16 9.5C16 9.49737 16 9.49475 15.9999 9.49214C15.9999 9.48782 15.9998 9.48351 15.9996 9.47922C15.9897 9.02905 15.8065 8.59942 15.4874 8.28033L11.7197 4.51256C11.4006 4.19347 10.9709 4.01033 10.5208 4.00042C10.5139 4.00014 10.507 4 10.5 4L10.4938 4.00004L10.4822 4H5.75C4.7835 4 4 4.7835 4 5.75V14.25C4 15.2165 4.7835 16 5.75 16H14.25C15.2165 16 16 15.2165 16 14.25V9.51777L16 9.50623ZM5 5.75C5 5.33579 5.33579 5 5.75 5H10V8.5C10 9.32843 10.6716 10 11.5 10H15V14.25C15 14.6642 14.6642 15 14.25 15H5.75C5.33579 15 5 14.6642 5 14.25V5.75ZM11 5.2074L11.0126 5.21967L14.7803 8.98744L14.7926 9H11.5C11.2239 9 11 8.77614 11 8.5V5.2074Z" fill="#212121"/>
</svg>

<svg xmlns="http://www.w3.org/2000/svg" width="20" height="20"><path d="m12.384 3.746 1.11 1.127L16 7.38v-.67c0-.46-.18-.9-.503-1.228l-2.4-2.437A3.5 3.5 0 0 0 10.603 2H5.75a1.75 1.75 0 0 0-1.746 1.625A2.739 2.739 0 0 1 5.75 3h4.853a2.5 2.5 0 0 1 1.781.746ZM2.5 13a.5.5 0 0 1 .5.5v1A2.5 2.5 0 0 0 5.5 17h9a2.5 2.5 0 0 0 2.5-2.5v-1a.5.5 0 0 1 1 0v1a3.5 3.5 0 0 1-3.5 3.5h-9A3.5 3.5 0 0 1 2 14.5v-1a.5.5 0 0 1 .5-.5ZM6 7.5a.5.5 0 0 1 .5-.5h2a.5.5 0 0 1 0 1h-2a.5.5 0 0 1-.5-.5ZM6.5 9a.5.5 0 0 0 0 1h2a.5.5 0 0 0 0-1h-2ZM6 11.5a.5.5 0 0 1 .5-.5h2a.5.5 0 0 1 0 1h-2a.5.5 0 0 1-.5-.5Zm10-1.994V9.48a1.75 1.75 0 0 0-.513-1.199L11.72 4.513A1.75 1.75 0 0 0 10.5 4H5.75A1.75 1.75 0 0 0 4 5.75v8.5c0 .966.784 1.75 1.75 1.75h8.5A1.75 1.75 0 0 0 16 14.25V9.506ZM5 5.75A.75.75 0 0 1 5.75 5H10v3.5a1.5 1.5 0 0 0 1.5 1.5H15v4.25a.75.75 0 0 1-.75.75h-8.5a.75.75 0 0 1-.75-.75v-8.5Zm6-.543.013.013 3.767 3.767.013.013H11.5a.5.5 0 0 1-.5-.5V5.207Z"/></svg>
